X:1
T:Au verd boys je m’en iray
T:Au verd boys je m’en iray
T:Clément Janequin
C:Clément Janequin
%%score [ 1 2 3 4 ]
L:1/8
Q:1/4=192
M:2/2
K:Cmin
V:1 treble nm="S"
V:2 treble nm="A"
V:3 treble-8 nm="T"
V:4 bass nm="B"
V:1
 z8 | z8 | z8 | z8 | G6 F2 | B8 | A4 G2 F2 | A8 | G2 F2 A2 G2 | F4 E2 F2 | G6 F2 | B8 | A4 G2 F2 | %13
w: ||||Au verd|boys|je m’en i-|ray,|je m’en i- ray|seu- le, et|au verd|boys|je m’en i-|
w: |||||||||||||
 E4 (F2 E2) | F8 |: c4 B2 A2 | c4 B4 | A2 B2 c2 c2 | B4 A4 | A4 G2 F2 | G6 E2 | A6 A2 | G4 A4 | %23
w: ray jou- *|er.|A mon a-|my j’ay|don- né là u-|neheu- re,|Au verd boys|je m’en|i- ray|seu- le,|
w: ||Doul- ce- ment|faul- dra|là que je l’a-|cuei- le,|||||
 c4 B2 A2 | c4 B4 | A2 B2 c2 c2 | B4 A4 | B2 c2 A4 | G2 G2 F4 | B2 c2 A4 | G2 G2 F4 | B2 c2 A4 | %32
w: A mon a-|my j’ay|don- né là u-|neheu- re|pour nous voir|au verd boys,|pour nous voir|au verd boys,|Au verd boys|
w: Doul- ce- ment|faul- dra|là que je l’a-|cuei- le.|Je m’en vois||Je m’en vois||Je m’en vois|
 c2 c2 e2 f2 | d4 c4 | z8 | e2 c2 e2 f2 | d4 c2 c2 | c2 c2 c2 c2 | B4 A4 | G4 A2 B2 | G4 z4 | z8 | %42
w: je m’en i- ray|seu- le,||je m’en i- ray|seu- le, En|par- le qui vou-|dra par-|ler. Au verd|boys,||
w: soubz la ver- te|feuil- le,||Maul- gré qui en|veuil- le, Pour|en a- voir un|doulx bai-|ser. * *|||
 z8 | G6 F2 | B8 | A4 G2 F2 | A8 | G2 F2 A2 G2 | F4 E2 F2 | G6 F2 | B8 | A4 G2 F2 | E4 (F2 E2 | %53
w: |au verd|boys|je m’en i-|ray,|je m’en i- ray|seu- le, et|au verd|boys|je m’en i-|ray jou- *|
w: |||||||||||
 F8) :| %54
w: er.|
w: |
V:2
 C6 B,2 | E6 F2 | D4 D4 | C6 F2 | E4 D2 C2 | D4 D2 B,2 | F4 E2 D2 | F4 C2 C2 | D2 D2 C2 E2 | %9
w: Au verd|boys je|m’en i-|ray, je|m’en i- ray|seu- le, au|verd boys, au|verd boys, au|verd boys je m’en|
w: |||||||||
 C2 D2 C4 | C2 C2 D2 D2 | G2 F2 E2 D2 | C4 D4 | C8- | C8 |: A4 G2 F2 | E2 F2 G2 E2 | F6 A2 | %18
w: i- ray jou-|er, et au verd|boys je m’en i-|ray jou-|er.||A mon a-|my j’ay don- né|là u-|
w: ||||||Doul- ce- ment|faul- dra là que|je l’a-|
 G4 A4 | E4 E2 C2 | E4 G4 | F4 F4 | E4 E4 | A4 G2 F2 | E2 F2 G2 E2 | F6 A2 | G4 A4 | G2 E2 F4 | %28
w: neheu- re,|Au verd boys|je m’en|i- ray|seu- le,|A mon a-|my j’ay don- né|là u-|neheu- re|pour nous voir|
w: cuei- le,|||||Doul- ce- ment|faul- dra là que|je l’a-|cuei- le.|Je m’en vois|
 D2 E2 C4 | G2 E2 F4 | D2 E2 C4 | G2 E2 F4 | A2 A2 G2 F2 | B4 A4 | z8 | A2 A2 G2 F2 | B4 A2 A2 | %37
w: au verd boys,|pour nous voir|au verd boys,|Au verd boys|je m’en i- ray|seu- le,||je m’en i- ray|seu- le, En|
w: |Je m’en vois||Je m’en vois|soubz la ver- te|feuil- le,||Maul- gré qui en|veuil- le, Pour|
 A2 A2 A2 A2 | G4 F4 | E4 C2 D2 | E6 F2 | D4 D4 | C6 F2 | E4 D2 C2 | D4 D2 B,2 | F4 E2 D2 | %46
w: par- le qui vou-|dra par-|ler. Au verd|boys je|m’en i-|ray, je|m’en i- ray|seu- le, au|verd boys, au|
w: en a- voir un|doulx bai-|ser. * *|||||||
 F4 C2 C2 | D2 D2 C2 E2 | C2 D2 C4 | C2 C2 D2 D2 | G2 F2 E2 D2 | C4 D4 | C8- | C8 :| %54
w: verd boys, au|verd boys je m’en|i- ray jou-|er, et au verd|boys je m’en i-|ray jou-|er.||
w: ||||||||
V:3
 z8 | G6 F2 | B8 | A4 G2 F2 | c4 B2 A2 | G2 F2 G4 | F4 z4 | c6 A2 | B4 F2 G2 | A2 B2 G2 F2 | %10
w: |Au verd|boys|je m’en i-|ray, je m’en|i- ray seu-|le,|au verd|boys je m’en|i- ray seu- le,|
w: ||||||||||
 z2 E2 B4- | B2 F2 G2 G2 | A4 B4 | G4 G4 | F8 |: z8 | z8 | z8 | z8 | c4 B2 A2 | c4 B4 | %21
w: et au|* verd boys je|m’en i-|ray jou-|er.|||||A mon a-|my j’ay|
w: |||||||||Doul- ce- ment|faul- dra|
 A2 B2 c2 c2 | B4 A4 | z8 | z8 | z8 | z8 | z8 | B2 c2 A4 | z8 | B2 c2 A4 | z8 | z8 | z4 e2 c2 | %34
w: don- né là u-|neheu- re,||||||au verd boys,||au verd boys,|||je m’en|
w: là que je l’a-|cuei- le.|||||||||||Maul- gré|
 e2 f2 d4 | c4 z4 | z4 e4 | e2 e2 e2 e2 | e4 c4 | c4 z4 | G6 F2 | B8 | A4 G2 F2 | c4 B2 A2 | %44
w: i- ray seu-|le,|En|par- le qui vou-|dra par-|ler.|Au verd|boys|je m’en i-|ray, je m’en|
w: qui en veuil-|le,|Pour|en a- voir un|doulx bai-|ser.|||||
 G2 F2 G4 | F4 z4 | c6 A2 | B4 F2 G2 | A2 B2 G2 F2 | z2 E2 B4- | B2 F2 G2 G2 | A4 B4 | G4 G4 | %53
w: i- ray seu-|le,|au verd|boys je m’en|i- ray seu- le,|et au|* verd boys je|m’en i-|ray jou-|
w: |||||||||
 F8 :| %54
w: er.|
w: |
V:4
 z8 | C,6 D,2 | B,,2 C,2 D,2 E,2 | F,2 (E,F, E,2 D,2) | C,4 z4 | z8 | z8 | F,6 F,2 | B,,4 F,2 E,2 | %9
w: |Au verd|boys je m’en i-|ray seu- * * *|le,|||au verd|boys je m’en|
w: |||||||||
 F,2 B,,2 C,2 F,2 | z8 | z2 B,,2 B,,2 E,2 | F,2 F,2 B,,2 B,,2 | C,4 C,4 | F,8 |: z8 | z8 | z8 | %18
w: i- ray seu- le,||et au verd|boys je m’en i-|ray jou-|er.||||
w: |||||||||
 z8 | A,4 E,2 F,2 | C,4 E,4 | F,4 A,4 | E,4 A,,4 | z8 | z8 | z8 | z8 | z8 | G,2 E,2 F,4 | z8 | %30
w: |Au verd boys|je m’en|i- ray|seu- le,||||||au verd boys,||
w: ||||||||||||
 G,2 E,2 F,4 | z8 | z8 | z4 A,2 A,2 | G,2 F,2 B,4 | A,4 z4 | z4 A,4 | A,2 A,2 A,2 A,2 | E,4 F,4 | %39
w: au verd boys,|||je m’en|i- ray seu-|le,|En|par- le qui vou-|dra par-|
w: |||Maul- gré|qui en veuil-|le,|Pour|en a- voir un|doulx bai-|
 C,4 z4 | C,6 D,2 | B,,2 C,2 D,2 E,2 | (F,2 E,F, E,2 D,2) | C,4 z4 | z8 | z8 | F,6 F,2 | %47
w: ler.|Au verd|boys je m’en i-|ray seu- * * *|le,|||au verd|
w: ser.||||||||
 B,,4 F,2 E,2 | F,2 B,,2 C,2 F,2 | z8 | z2 B,,2 B,,2 E,2 | F,2 F,2 B,,2 B,,2 | C,4 C,4 | F,8 :| %54
w: boys je m’en|i- ray seu- le,||et au verd|boys je m’en i-|ray jou-|er.|
w: |||||||

